resources/svg/trend-down.svg

<svg xmlns="http://www.w3.org/2000/svg" viewBox="0 0 15 15" fill="currentColor"><path fill-rule="evenodd" clip-rule="evenodd" d="M0.146454 3.85353L0.853561 3.14642L5.00001 7.29287L8.00001 4.29287L14 10.2929V4.99998H15V12H8.00001V11H13.2929L8.00001 5.70708L5.00001 8.70708L0.146454 3.85353Z" fill="black"/></svg>

<svg xmlns="http://www.w3.org/2000/svg" viewBox="0 0 15 15" fill="currentColor"><path fill-rule="evenodd" clip-rule="evenodd" d="M.146 3.854l.708-.708L5 7.293l3-3 6 6V5h1v7H8v-1h5.293L8 5.707l-3 3L.146 3.854z" fill="currentColor"/></svg>
